X:344
T:Dogs among the Bushes, The
R:reel
H:See also #358 in Amix.
H:Also played with doubled parts
D:Shaskeen: 25th Silver Jubilee Collection
Z:id:hn-reel-344
M:C|
K:G
BG~G2 DG~G2|BG~G2 cedc|BG~G2 DGFG|AF~F2 fdcA|
BG~G2 DG~G2|BG~G2 c2cA|BG~G2 DGFG|AF~F2 fdcA||
dggf ~g3f|dg~g2 bgaf|dffe fgfe|df~f2 af~f2|
dggf ~g3f|dg~g2 bgag|bg~g2 aggf|d^cde fd=cA||
P:version 2
|:BG~G2 DG~G2|BG~G2 cedc|B2GB DGBd|AF~F2 fdcd|
BG~G2 DG~G2|BG~G2 cedc|B2Bc defd|1 cAeg fdcd:|2 cAeg fdcA||
|:dggf g2gf|dg~g2 bgaf|defe ~f3e|dfeg fdcA|
dggf ~g3f|dg~g2 bgag|bg~g2 agbg|1 d2eg fdcA:|2 d2eg fdcd||

